client/public/img/game/weapons/baseball_bat.svg

<?xml version="1.0" encoding="UTF-8" standalone="no"?>
<svg
   width="110"
   height="110"
   viewBox="0 0 110 110"
   fill="none"
   version="1.1"
   id="svg12"
   sodipodi:docname="baseball_bat.svg"
   inkscape:version="1.1.2 (0a00cf5339, 2022-02-04)"
   xmlns:inkscape="http://www.inkscape.org/namespaces/inkscape"
   xmlns:sodipodi="http://sodipodi.sourceforge.net/DTD/sodipodi-0.dtd"
   xmlns="http://www.w3.org/2000/svg"
   xmlns:svg="http://www.w3.org/2000/svg">
  <defs
     id="defs16" />
  <sodipodi:namedview
     id="namedview14"
     pagecolor="#505050"
     bordercolor="#ffffff"
     borderopacity="1"
     inkscape:pageshadow="0"
     inkscape:pageopacity="0"
     inkscape:pagecheckerboard="1"
     showgrid="false"
     inkscape:zoom="7.9181818"
     inkscape:cx="37.382319"
     inkscape:cy="46.980482"
     inkscape:window-width="2560"
     inkscape:window-height="1372"
     inkscape:window-x="0"
     inkscape:window-y="0"
     inkscape:window-maximized="1"
     inkscape:current-layer="svg12" />
  <g
     id="g856"
     transform="matrix(1.0136218,0,0,1.0155213,-0.7496684,-0.74740506)">
    <path
       d="m 105.484,4.36822 c -3.41,-3.409659 -5.415,-4.566328 -11.7803,1.79923 L 60.315,42.0862 c 0,0 -12.0253,15.1483 -18.6028,22.2245 C 30.3256,76.5604 9.53826,97.5979 6.01891,101.158 4.67548,100.496 2.79734,99.4885 2.05494,100.029 c -0.7424,0.541 -0.58722,2.128 0.56299,3.843 0.41697,0.622 0.93664,1.255 1.54393,1.863 2.28223,2.281 5.04281,2.993 5.65389,2.055 0.61105,-0.938 -0.41611,-2.576 -1.08296,-3.925 C 12.4468,100.501 33.5684,79.8453 45.7616,68.4433 52.8249,61.8384 67.7675,49.5387 67.7675,49.5387 L 103.686,16.15 c 6.757,-5.8649 5.21,-8.37179 1.798,-11.78178 z"
       fill="#b87b2f"
       id="path2" />
    <path
       d="m 104.254,7.60408 c 2.545,1.42859 -1.395,4.73722 -7.496,10.97062 -6.5154,6.6571 -41.7178,39.73 -42.8793,38.6421 -1.107,-1.0369 27.3262,-27.7169 29.4549,-29.9883 2.3939,-2.5542 7.9838,-8.1234 11.2781,-11.4177 6.5883,-6.58858 8.3573,-8.92785 9.6423,-8.20672 z"
       fill="#d99b45"
       stroke="#553811"
       stroke-width="0.862368"
       stroke-linecap="square"
       stroke-linejoin="round"
       id="path4"
       style="stroke:none" />
    <path
       d="M 31.9787,74.5762 34.9481,78.7308 11.161,101.587 8.89355,98.246 Z"
       fill="#a29d96"
       stroke="#333333"
       stroke-width="0.862368"
       stroke-linecap="round"
       stroke-linejoin="round"
       id="path6" />
    <path
       d="m 31.9788,74.5757 -1.0661,1.0939 2.9047,4.1488 1.1308,-1.0869 z m -2.7092,2.7786 -1.812,1.8582 2.8122,4.0148 1.8593,-1.7877 z m -3.4551,3.543 -1.8131,1.8593 2.7173,3.8807 1.8617,-1.7877 z m -3.4562,3.5441 -1.812,1.8582 2.6237,3.7476 1.8617,-1.7876 z m -3.4551,3.543 -1.812,1.8582 2.5301,3.6146 1.8616,-1.7876 z m -3.4551,3.5429 -1.8131,1.8594 2.4375,3.4805 1.8617,-1.7876 z m -3.4574,3.543 -1.5517,1.5911 2.2536,3.4536 1.6929,-1.6254 z"
       fill="#948e86"
       stroke="#333333"
       stroke-width="0.862368"
       stroke-linecap="round"
       stroke-linejoin="round"
       id="path8" />
    <path
       d="m 105.484,4.36822 c -3.41,-3.409659 -5.415,-4.566328 -11.7802,1.79923 L 60.315,42.0862 c 0,0 -12.0253,15.1483 -18.6028,22.2245 C 30.3256,76.5604 9.53826,97.5979 6.01891,101.158 4.67548,100.496 2.79734,99.4885 2.05494,100.029 c -0.7424,0.541 -0.58722,2.128 0.56299,3.843 0.41697,0.622 0.93664,1.255 1.54393,1.863 2.28223,2.281 5.04281,2.993 5.65389,2.055 0.61105,-0.938 -0.41611,-2.576 -1.08296,-3.925 C 12.4468,100.501 33.5684,79.8453 45.7616,68.4433 52.8249,61.8384 67.7675,49.5387 67.7675,49.5387 L 103.686,16.15 c 6.757,-5.8649 5.21,-8.37179 1.798,-11.78178 z"
       stroke="#31200c"
       stroke-width="1.72474"
       stroke-linejoin="round"
       id="path10" />
  </g>
</svg>

<svg width="110" height="110" viewBox="0 0 110 110" fill="none" xmlns="http://www.w3.org/2000/svg">
<path d="M105.484 4.36822C102.074 0.958561 100.069 -0.198108 93.7037 6.16745L60.315 42.0862C60.315 42.0862 48.2897 57.2345 41.7122 64.3107C30.3256 76.5604 9.53826 97.5979 6.01891 101.158C4.67548 100.496 2.79734 99.4885 2.05494 100.029C1.31254 100.57 1.46772 102.157 2.61793 103.872C3.0349 104.494 3.55457 105.127 4.16186 105.735C6.44409 108.016 9.20467 108.728 9.81575 107.79C10.4268 106.852 9.39964 105.214 8.73279 103.865C12.4468 100.501 33.5684 79.8453 45.7616 68.4433C52.8249 61.8384 67.7675 49.5387 67.7675 49.5387L103.686 16.15C110.443 10.2851 108.896 7.77821 105.484 4.36822Z" fill="#B87B2F"/>
<path d="M104.254 7.60408C106.799 9.03267 102.859 12.3413 96.758 18.5747C90.2426 25.2318 55.0402 58.3047 53.8787 57.2168C52.7717 56.1799 81.2049 29.4999 83.3336 27.2285C85.7275 24.6743 91.3174 19.1051 94.6117 15.8108C101.2 9.22222 102.969 6.88295 104.254 7.60408Z" fill="#D99B45" stroke="#553811" stroke-width="0.862368" stroke-linecap="square" stroke-linejoin="round"/>
<path d="M31.9787 74.5762L34.9481 78.7308L11.161 101.587L8.89355 98.246L31.9787 74.5762Z" fill="#A29D96" stroke="#333333" stroke-width="0.862368" stroke-linecap="round" stroke-linejoin="round"/>
<path d="M31.9788 74.5757L30.9127 75.6696L33.8174 79.8184L34.9482 78.7315L31.9788 74.5757ZM29.2696 77.3543L27.4576 79.2125L30.2698 83.2273L32.1291 81.4396L29.2696 77.3543ZM25.8145 80.8973L24.0014 82.7566L26.7187 86.6373L28.5804 84.8496L25.8145 80.8973ZM22.3583 84.4414L20.5463 86.2996L23.17 90.0472L25.0317 88.2596L22.3583 84.4414ZM18.9032 87.9844L17.0912 89.8426L19.6213 93.4572L21.4829 91.6696L18.9032 87.9844ZM15.4481 91.5273L13.635 93.3867L16.0725 96.8672L17.9342 95.0796L15.4481 91.5273ZM11.9907 95.0703L10.439 96.6614L12.6926 100.115L14.3855 98.4896L11.9907 95.0703Z" fill="#948E86" stroke="#333333" stroke-width="0.862368" stroke-linecap="round" stroke-linejoin="round"/>
<path d="M105.484 4.36822C102.074 0.958561 100.069 -0.198108 93.7038 6.16745L60.315 42.0862C60.315 42.0862 48.2897 57.2345 41.7122 64.3107C30.3256 76.5604 9.53826 97.5979 6.01891 101.158C4.67548 100.496 2.79734 99.4885 2.05494 100.029C1.31254 100.57 1.46772 102.157 2.61793 103.872C3.0349 104.494 3.55457 105.127 4.16186 105.735C6.44409 108.016 9.20467 108.728 9.81575 107.79C10.4268 106.852 9.39964 105.214 8.73279 103.865C12.4468 100.501 33.5684 79.8453 45.7616 68.4433C52.8249 61.8384 67.7675 49.5387 67.7675 49.5387L103.686 16.15C110.443 10.2851 108.896 7.77821 105.484 4.36822Z" stroke="#31200C" stroke-width="1.72474" stroke-linejoin="round"/>
</svg>
